icons/svg/tag-accent.svg

<svg width="24" height="24" viewBox="0 0 24 24" fill="none" xmlns="http://www.w3.org/2000/svg">
<path d="M20.1616 10.9254L13.7164 4.48028C13.2476 4.01144 12.6117 3.74805 11.9487 3.74805L6.74808 3.74805C5.09122 3.74805 3.74808 5.0912 3.74808 6.74805L3.74808 11.9486C3.74808 12.6117 4.01147 13.2476 4.48031 13.7164L10.9255 20.1616C12.4876 21.7237 15.0202 21.7237 16.5823 20.1616L20.1616 16.5823C21.7237 15.0202 21.7237 12.4875 20.1616 10.9254Z" fill="currentColor"/>
</svg>

<svg xmlns="http://www.w3.org/2000/svg" width="24" height="24" fill="none" viewBox="0 0 24 24"><path fill="currentColor" d="M20.162 10.925 13.716 4.48a2.5 2.5 0 0 0-1.767-.732h-5.2a3 3 0 0 0-3 3v5.2a2.5 2.5 0 0 0 .731 1.768l6.445 6.446a4 4 0 0 0 5.657 0l3.58-3.58a4 4 0 0 0 0-5.657"/></svg>
